X:551
T:55. An Dro
M:4/4
L:1/4
Q:1/4=170
%%MIDI program 21
%%MIDI chordprog 105
%%MIDI bassprog 34
K:Em
%A
"Em"B>c B A | G F E2  | "D"A A F D | "Bm"E/F/G/A/ B2 | \
"Em"B>c B A | G F E2  | "D"A A F D | "Em"E/F/G/F/ E2 :|
%B
"Em"B "G"d "Em"E2 | "Em"B "G"d "D"F2 |  "D"A A F D | "Bm"E/F/G/A/ B2 | \
"Em"B "G"d "Em"E2 | "Em"B "G"d "D"F2 |  "D"A A F D | "Em"E/F/G/F/ E2 :|
%C
"Em"E D/E/F A | "G"G/F/E/D/ E/D/E/F/ |\
"Em"E D/E/F A|[1 "G"G/F/E/D/ "Em"E/F/G/F/ :|[2 "G"G/F/E/D/ "Em"E2|
%D
"G"B A/B/c A |"D"A G/A/ B G |\
"Em"E D/E/F A|[1 "G"G/F/E/D/ "Em"E/F/G/A/ :|[2 "G"G/F/E/D/ "Em"E2|
